symbolic/16x16/apps/pixeluvo.svg

<svg xmlns="http://www.w3.org/2000/svg" width="16" height="16" version="1">
 <rect style="fill:#b2bfd9" width="16" height="16" x="0" y="0" rx=".8" ry=".8"/>
 <path style="fill:#296694" d="M 7.5800781 2 C 7.4856042 1.9981 7.3848109 2.0093111 7.2851562 2.0332031 C 7.0548353 2.1117943 6.9352504 2.3143221 6.4648438 3.4140625 C 6.1613486 4.1235829 5.7211094 5.2218076 5.4882812 5.8535156 C 5.0793915 6.9628908 5.0629659 7.0489077 5.0195312 8.3828125 C 4.9782962 9.6491645 4.9898337 9.7746643 5.1582031 9.8945312 C 5.2591921 9.9664414 5.4967949 10.011586 5.6855469 9.9960938 C 6.0133748 9.9691737 6.0524468 9.9243441 6.5507812 8.9921875 L 7.0722656 8 L 7.9375 8 C 9.9557195 7.99688 12.057782 6.867956 12.787109 5.375 C 13.44858 4.008048 12.501212 2.6635718 10.837891 2.1992188 C 10.040924 1.9942818 8.8748332 1.9960581 8.4667969 2.203125 C 8.291832 2.2919154 8.2095201 2.3293817 8.1191406 2.3085938 C 8.0969571 2.1213237 7.8635002 2.0057008 7.5800781 2 z M 10.003906 3 C 11.165934 3.00216 11.12182 3.8175283 10.724609 5.0234375 C 10.410312 5.6858787 9.6003875 6.5418398 9.0351562 6.8066406 C 8.7025903 6.9624246 8.4260137 7 7.625 7 C 7.0769652 7 6.6022089 6.9601384 6.5703125 6.9101562 C 6.4317565 6.693194 7.9284509 4.0289726 8.453125 3.5585938 C 8.9182895 3.1415662 9.3100455 3 10.003906 3 z M 4.5488281 10.082031 L 4.2460938 10.367188 C 3.7663578 10.818323 3.6646699 11.15117 3.7949219 11.851562 C 3.8962019 12.396163 3.8903695 12.468917 3.7109375 12.710938 C 3.6031015 12.85639 3.3745741 13.021725 3.2050781 13.078125 C 3.0355861 13.134525 2.9313723 13.215601 2.9726562 13.257812 C 3.0756203 13.363105 3.8185129 13.265231 4.4042969 13.070312 C 5.4821609 12.711588 5.9302681 12.177659 5.9863281 11.185547 L 6.0097656 10.392578 C 5.5716456 10.533218 4.9682041 10.567399 4.5488281 10.082031 z"/>
</svg>

<svg xmlns="http://www.w3.org/2000/svg" width="16" height="16" version="1"><rect style="fill:#b2bfd9" width="16" height="16" rx=".8" ry=".8"/><path style="fill:#296694" d="M7.58 2a1.176 1.176 0 0 0-.295.033c-.23.079-.35.281-.82 1.381-.304.71-.744 1.808-.977 2.44-.409 1.109-.425 1.195-.468 2.529-.042 1.266-.03 1.392.138 1.512.101.071.339.117.528.101.327-.027.366-.072.865-1.004L7.072 8h.865c2.019-.003 4.12-1.132 4.85-2.625.662-1.367-.286-2.711-1.95-3.176-.796-.205-1.962-.203-2.37.004-.175.089-.257.126-.348.106-.022-.188-.255-.303-.539-.309zm2.424 1c1.162.002 1.118.818.72 2.023-.314.663-1.124 1.519-1.689 1.784-.332.155-.609.193-1.41.193-.548 0-1.023-.04-1.055-.09-.138-.217 1.358-2.881 1.883-3.351.465-.417.857-.559 1.55-.559zm-5.455 7.082-.303.285c-.48.451-.581.784-.451 1.485.101.544.095.617-.084.859-.108.145-.336.31-.506.367-.17.057-.274.138-.232.18.103.105.846.007 1.431-.188 1.078-.358 1.526-.892 1.582-1.884l.024-.793c-.438.14-1.042.174-1.461-.311z"/></svg>
